logos/jupyter.svg

<?xml version="1.0" encoding="UTF-8"?>
<svg width="256px" height="300px" viewBox="0 0 256 300" version="1.1" xmlns="http://www.w3.org/2000/svg" xmlns:xlink="http://www.w3.org/1999/xlink" preserveAspectRatio="xMidYMid">
		<g>
				<path d="M10.5838307,156.409656 L10.5838307,156.196646 L10.5838307,123.657627 L17.7200527,123.657627 L17.7200527,158.912657 C18.0516208,161.753926 17.8075656,164.63288 17.0023629,167.377784 C16.19722,170.122687 14.8474392,172.677251 13.0335946,174.88924 C9.6624625,177.797086 5.34298451,179.369568 0.891381719,179.309391 L0.145805038,173.983903 C3.01718628,173.985518 5.78730255,172.922981 7.92105685,171.001585 C9.83826599,168.76489 10.5838307,165.729334 10.5838307,156.409656 Z M63.8037763,152.209035 C63.8037763,156.203166 63.8037763,159.771277 64.1232613,162.860071 L57.7859014,162.860071 L57.3598815,156.522711 C56.0343268,158.765028 54.1386519,160.616318 51.8656486,161.888456 C49.5925854,163.160593 47.0232464,163.808237 44.4187946,163.765408 C38.2412071,163.765408 30.8919752,160.410366 30.8919752,146.723715 L30.8919752,123.983721 L38.0281972,123.983721 L38.0281972,145.285823 C38.0281972,152.688352 40.3181887,157.641058 46.7620834,157.641058 C48.0878176,157.655354 49.4030239,157.404719 50.6306575,156.903927 C51.8582911,156.403136 52.9735276,155.662296 53.9110465,154.724777 C54.8485056,153.787318 55.5894046,152.672022 56.0901963,151.444448 C56.5909282,150.216815 56.8415633,148.901549 56.8273268,147.575814 L56.8273268,123.717444 L63.9634889,123.717444 L63.9634889,151.996025 L63.8037763,152.209035 Z M77.330762,136.653806 C77.330762,131.70104 77.330762,127.653648 77.0112304,123.979032 L83.4018876,123.979032 L83.7213726,130.635931 C85.1452074,128.23088 87.1949721,126.257257 89.6521533,124.925482 C92.1093944,123.593709 94.8819333,122.953703 97.6742718,123.073695 C107.153723,123.073695 114.289945,131.008713 114.289945,142.831393 C114.289945,156.784292 105.715831,163.707504 96.4493898,163.707504 C94.0776877,163.813321 91.7187865,163.305232 89.6009496,162.232346 C87.4831127,161.159401 85.6780613,159.558028 84.3604623,157.583154 L84.3604623,178.885226 L77.330762,178.885226 L77.330762,136.813578 L77.330762,136.653806 Z M84.3604623,147.038594 C84.3797833,148.004885 84.4867369,148.967408 84.6800071,149.914378 C85.2842232,152.279021 86.6597255,154.374666 88.5887785,155.869683 C90.5178913,157.364761 92.8904309,158.173852 95.3310427,158.168947 C102.840047,158.168947 107.260258,152.044597 107.260258,143.150938 C107.260258,135.375686 103.106354,128.718758 95.59735,128.718758 C92.6257387,128.962101 89.844945,130.280974 87.7762781,132.428062 C85.7076111,134.575149 84.4931374,137.403079 84.3604623,140.381689 L84.3604623,147.038594 Z M127.004503,123.94359 L135.578617,146.896647 C136.483954,149.452886 137.442529,152.54168 138.081618,154.831671 C138.827183,152.488442 139.625985,149.506124 140.58462,146.736875 L148.359872,123.94359 L155.868876,123.94359 L145.21784,151.636343 C139.892293,164.950152 136.643726,171.820127 131.744199,175.97403 C129.27643,178.228071 126.267791,179.805756 123.010354,180.553953 L121.252929,174.589376 C123.530581,173.840999 125.645092,172.666304 127.48382,171.127799 C130.081872,169.010501 132.14366,166.310102 133.501635,163.246013 C133.792288,162.715372 133.990404,162.139031 134.087428,161.541814 C134.026892,160.899135 133.865146,160.270094 133.60817,159.677902 L119.122716,123.837079 L126.897968,123.837079 L127.004503,123.94359 Z M174.813541,112.770851 L174.813541,123.954441 L185.038557,123.954441 L185.038557,129.279989 L174.813541,129.279989 L174.813541,150.262575 C174.813541,155.055568 176.198196,157.824817 180.139089,157.824817 C181.538758,157.847727 182.935316,157.686579 184.292992,157.345559 L184.612537,162.671047 C182.57671,163.376355 180.428486,163.701283 178.275118,163.629682 C176.849069,163.718929 175.420569,163.498622 174.087657,162.983833 C172.754744,162.469044 171.549004,161.671976 170.553103,160.647363 C168.383883,157.745977 167.394359,154.130491 167.783854,150.528882 L167.783854,129.226751 L161.712742,129.226751 L161.712742,123.901204 L167.890329,123.901204 L167.890329,114.421764 L174.813541,112.770851 Z M198.184399,144.647511 C198.03988,146.453639 198.289199,148.269577 198.915189,149.969888 C199.541179,151.670199 200.528884,153.214267 201.810114,154.495437 C203.091285,155.776667 204.635352,156.764373 206.335664,157.390363 C208.035975,158.016352 209.851913,158.265672 211.658041,158.121153 C215.311153,158.202863 218.940457,157.513288 222.309077,156.097409 L223.533958,161.422956 C219.400274,163.12572 214.955358,163.942168 210.486396,163.819423 C207.881107,163.997798 205.268101,163.61054 202.826592,162.684147 C200.385023,161.757814 198.172795,160.3143 196.341489,158.452721 C194.51022,156.591082 193.103284,154.355345 192.217196,151.898941 C191.331104,149.442478 190.986827,146.82349 191.207978,144.221491 C191.207978,132.505346 198.184399,123.238905 209.581059,123.238905 C222.362314,123.238905 225.557643,134.422495 225.557643,141.558717 C225.625954,142.658281 225.625954,143.761016 225.557643,144.860581 L198.024687,144.860581 L198.184399,144.647511 Z M219.06051,139.322023 C219.266043,137.898188 219.163995,136.446897 218.761184,135.065892 C218.358433,133.684886 217.664311,132.406228 216.725656,131.316115 C215.786941,130.226062 214.625525,129.349856 213.31959,128.746561 C212.013656,128.143278 210.59353,127.826939 209.155039,127.818864 C206.228949,128.030665 203.487515,129.327603 201.467959,131.455549 C199.448402,133.583436 198.296377,136.388874 198.237697,139.322023 L219.06051,139.322023 Z M236.385366,136.053478 C236.385366,131.473555 236.385366,127.532637 236.065834,123.911277 L242.456492,123.911277 L242.456492,131.526792 L242.775977,131.526792 C243.446769,129.176325 244.83268,127.093027 246.741335,125.566097 C248.64999,124.039161 250.986699,123.144369 253.427072,123.005938 C254.098762,122.917777 254.779066,122.917777 255.450756,123.005938 L255.450756,129.66288 C254.63688,129.568608 253.814868,129.568608 253.000992,129.66288 C250.58353,129.756495 248.282771,130.726973 246.528505,132.393068 C244.774238,134.059104 243.686458,136.306745 243.468304,138.716252 C243.269171,139.805946 243.162278,140.910475 243.148819,142.018055 L243.148819,162.734394 L236.11909,162.734394 L236.11909,136.106715 L236.385366,136.053478 Z" fill="#4E4E4E"></path>
				<path d="M233.257943,16.9621357 C233.476636,20.5398773 232.625434,24.1017075 230.812666,27.1939108 C228.999898,30.286174 226.307754,32.7687777 223.079047,34.3255867 C219.85034,35.8823358 216.231324,36.4427655 212.683013,35.9355136 C209.134702,35.4282017 205.817704,33.8761781 203.154559,31.4770796 C200.491421,29.0780409 198.602703,25.9404959 197.729013,22.4642047 C196.855323,18.9879135 197.036209,15.330196 198.248625,11.9570899 C199.461041,8.5839838 201.650109,5.64808944 204.536953,3.52346926 C207.423803,1.39884909 210.877782,0.181657262 214.458814,0.0269503701 C216.806708,-0.10224713 219.156996,0.233972409 221.374429,1.01627461 C223.591922,1.79857323 225.632893,3.01152758 227.379981,4.58537259 C229.12701,6.15922358 230.54576,8.06291398 231.554522,10.1869719 C232.563283,12.3110298 233.142196,14.6135829 233.257943,16.9621357 Z" fill="#767677"></path>
				<path d="M127.952969,225.540984 C80.0236372,225.540984 37.8984531,208.339518 16.1170646,182.936721 C24.5683135,205.78944 39.8176362,225.504615 59.8124569,239.428562 C79.8070981,253.352629 103.588124,260.816651 127.952969,260.816651 C152.318411,260.816651 176.098839,253.352629 196.094019,239.428562 C216.0886,225.504615 231.337863,205.78944 239.789471,182.936721 C218.061379,208.339518 176.095848,225.540984 127.952969,225.540984 Z" fill="#F37726"></path>
				<path d="M127.952969,60.3543133 C175.882898,60.3543133 218.008142,77.5557785 239.789471,102.958396 C231.337863,80.1058563 216.0886,60.3906823 196.094019,46.4667348 C176.098839,32.5427873 152.318411,25.0784666 127.952969,25.0784666 C103.588124,25.0784666 79.8070981,32.5427873 59.8124569,46.4667348 C39.8176362,60.3906823 24.5683135,80.1058563 16.1170646,102.958396 C37.8984531,77.502541 79.8106871,60.3543133 127.952969,60.3543133 Z" fill="#F37726"></path>
				<path d="M61.9716874,274.975202 C62.2528294,279.48161 61.186045,283.969713 58.9072992,287.867658 C56.6284936,291.765602 53.2409116,294.896926 49.1761363,296.862707 C45.1113611,298.828488 40.5533909,299.539717 36.0829934,298.905772 C31.6125362,298.271767 27.4320141,296.321359 24.0740419,293.30297 C20.7160636,290.284582 18.3326671,286.334835 17.2274978,281.957035 C16.1223339,277.579176 16.3454363,272.971497 17.868382,268.720869 C19.3913284,264.470301 22.1451683,260.769335 25.7790187,258.089483 C29.4129289,255.40962 33.7623156,253.872201 38.2730898,253.673106 C41.2280121,253.515051 44.1851476,253.940738 46.9755719,254.925846 C49.7659364,255.910962 52.3349165,257.436187 54.5356604,259.414404 C56.7364042,261.392633 58.5259031,263.785032 59.8017495,266.455044 C61.0776558,269.124996 61.8150255,272.02022 61.9716874,274.975202 Z" fill="#9E9E9E"></path>
				<path d="M21.5641016,54.5650606 C18.9814831,54.6363631 16.4354131,53.9424806 14.2460944,52.570687 C12.0567996,51.1988336 10.3219858,49.2102622 9.25983722,46.8551295 C8.19768984,44.499937 7.85562972,41.8832824 8.276674,39.3342215 C8.69771827,36.7851606 9.86306631,34.4174662 11.6261678,32.5289814 C13.3892752,30.6404727 15.6714246,29.3154324 18.1856119,28.7204982 C20.6997394,28.1255646 23.3336813,28.2873008 25.7562282,29.1853653 C28.1787154,30.0834346 30.2815979,31.6777312 31.800363,33.767765 C33.3191879,35.8578106 34.1861222,38.3502842 34.2921188,40.9317063 C34.3930308,44.4222341 33.113057,47.8117302 30.7300493,50.3642007 C28.3470417,52.916731 25.0533134,54.4262842 21.5641016,54.5650606 Z" fill="#616262"></path>
		</g>
</svg>

<svg width="256" height="300" xmlns="http://www.w3.org/2000/svg" preserveAspectRatio="xMidYMid">
	<path d="M10.584 156.41v-32.753h7.136v35.256a21.302 21.302 0 0 1-4.686 15.976A18.213 18.213 0 0 1 .89 179.31l-.745-5.325a11.61 11.61 0 0 0 7.775-2.982c1.917-2.237 2.663-5.273 2.663-14.592Zm53.22-4.201c0 3.994 0 7.562.32 10.651h-6.338l-.426-6.337a14.752 14.752 0 0 1-12.941 7.242c-6.178 0-13.527-3.355-13.527-17.041v-22.74h7.136v21.302c0 7.402 2.29 12.355 8.734 12.355a9.958 9.958 0 0 0 10.065-10.065v-23.859h7.136v28.279l-.16.213Zm13.527-15.555c0-4.953 0-9-.32-12.675h6.39l.32 6.657a15.445 15.445 0 0 1 13.953-7.562c9.48 0 16.616 7.935 16.616 19.757 0 13.953-8.574 20.877-17.84 20.877a13.794 13.794 0 0 1-12.09-6.125v21.302h-7.03V136.654Zm7.03 10.385c.019.966.126 1.928.319 2.875a10.97 10.97 0 0 0 10.651 8.255c7.509 0 11.93-6.124 11.93-15.018 0-7.775-4.155-14.432-11.664-14.432a12.249 12.249 0 0 0-11.237 11.663v6.657Zm42.644-23.095 8.574 22.953a132.673 132.673 0 0 1 2.503 7.935c.745-2.344 1.544-5.326 2.503-8.095l7.775-22.793h7.509l-10.651 27.692c-5.326 13.314-8.574 20.184-13.474 24.338a19.385 19.385 0 0 1-8.734 4.58l-1.757-5.965a18.906 18.906 0 0 0 6.23-3.461 21.302 21.302 0 0 0 6.019-7.882c.29-.53.488-1.107.585-1.704a6.125 6.125 0 0 0-.479-1.864l-14.485-35.84h7.775l.107.106Zm47.809-11.173v11.183h10.225v5.326h-10.225v20.983c0 4.793 1.384 7.562 5.325 7.562 1.4.023 2.796-.138 4.154-.48l.32 5.326a17.575 17.575 0 0 1-6.338.959 9.906 9.906 0 0 1-7.722-2.983 14.326 14.326 0 0 1-2.77-10.118v-21.302h-6.07V123.9h6.177v-9.48l6.924-1.65Zm23.37 31.877a12.516 12.516 0 0 0 13.474 13.473 25.988 25.988 0 0 0 10.651-2.024l1.225 5.326a31.953 31.953 0 0 1-13.048 2.396 18.106 18.106 0 0 1-19.278-19.598c0-11.716 6.976-20.982 18.373-20.982 12.781 0 15.977 11.183 15.977 18.32.068 1.1.068 2.202 0 3.302h-27.533l.16-.213Zm20.877-5.326a10.064 10.064 0 0 0-9.906-11.503 11.77 11.77 0 0 0-10.917 11.503h20.823Zm17.324-3.269c0-4.58 0-8.52-.32-12.142h6.391v7.616h.32a11.77 11.77 0 0 1 10.651-8.521 7.775 7.775 0 0 1 2.024 0v6.657a10.645 10.645 0 0 0-2.45 0 9.958 9.958 0 0 0-9.533 9.053c-.199 1.09-.306 2.194-.32 3.302v20.716h-7.029v-26.627l.266-.054Z" fill="#4E4E4E"/>
	<path d="M233.258 16.962a18.053 18.053 0 1 1-18.8-16.935 17.84 17.84 0 0 1 18.8 16.935Z" fill="#767677"/>
	<path d="M127.953 225.541c-47.93 0-90.055-17.201-111.836-42.604a119.239 119.239 0 0 0 223.672 0c-21.728 25.403-63.693 42.604-111.836 42.604Z" fill="#F37726"/>
	<path d="M127.953 60.354c47.93 0 90.055 17.202 111.836 42.604a119.243 119.243 0 0 0-111.836-77.88 119.239 119.239 0 0 0-111.836 77.88c21.781-25.455 63.694-42.604 111.836-42.604Z" fill="#F37726"/>
	<path d="M61.972 274.975a22.74 22.74 0 1 1-23.699-21.302 22.527 22.527 0 0 1 23.699 21.302Z" fill="#9E9E9E"/>
	<path d="M21.564 54.565a13.102 13.102 0 1 1 12.728-13.633 13.26 13.26 0 0 1-12.728 13.633Z" fill="#616262"/>
</svg>
